icons/bhi_inbox.svg

<svg xmlns="http://www.w3.org/2000/svg" viewBox="0 0 512 512" enable-background="new 0 0 512 512"><path fill="#010101" d="M371.2 199.9h-57.1v-85.7h-114.2v85.7h-57.1l114.2 114.2 114.2-114.2zm76.8 152.1h-105.3c0 47.3-38.4 76.3-85.7 76.3s-85.7-29-85.7-76.3h-107.3v-288h384m8.9-64h-399.8c-31.7 0-57.1 25.7-57.1 57.1v399.8c0 31.5 25.6 57.1 57.1 57.1h399.8c31.5 0 57.1-25.6 57.1-57.1v-399.8c0-31.5-25.6-57.1-57.1-57.1z"/></svg>

<?xml version="1.0" encoding="utf-8"?>
<!-- Generator: Adobe Illustrator 19.2.0, SVG Export Plug-In . SVG Version: 6.00 Build 0)  -->
<svg version="1.1" id="Layer_1" xmlns="http://www.w3.org/2000/svg" xmlns:xlink="http://www.w3.org/1999/xlink" x="0px" y="0px"
	 viewBox="0 0 512 512" enable-background="new 0 0 512 512" xml:space="preserve">
<path fill="#010101" d="M371.2,199.9h-57.1v-85.7H199.9v85.7h-57.1L257,314.1L371.2,199.9z M448,352H342.7
	c0,47.3-38.4,76.3-85.7,76.3s-85.7-29-85.7-76.3H64V64h384 M456.9,0H57.1C25.4,0,0,25.7,0,57.1v399.8C0,488.4,25.6,514,57.1,514
	h399.8c31.5,0,57.1-25.6,57.1-57.1V57.1C514,25.6,488.4,0,456.9,0z"/>
</svg>
